X:21
T:Master Sitwells fancy. Pn1801.21
Q:1/4=100
M:C
L:1/8
C:"461"
W:Foot it and cast of 2 Cu: .| foot it and cast up again :| head down 2 Cu: :|.
W:up again and cast of:||: swing corners:|| lead out sides :||:
B:Preston 24 for 1801
Z:Village Music Project, John Adams, 2017
K:Bb
D/E/|FBDBG2EG|Fg {e}d{c}B Ac2d/e/|dBFD G2EG|FBAc dB B:||:d/e/|fdge f2dg|
fBgB Ac2d/e/|1fdge fdbd|dB Ad/e/ dB B:|2fdBF GBEG|FBAc dB B|]
